X: 39481
T: Tater Valsen
R: waltz
M: 3/4
K: Gmajor
|:DC|B,2 D2 G2|(3BcB A2 G2|E2 C3 E|A4 (3GAG|F2 A3 F|D2 E2 F2|G2 B,3 E|D4 DC|
B,2 D2 G2|(3BcB A2 G2|E2 C3 E|A4 (3GAG|F2 A3 F|D2 E2 F2|G3 G G2|G4:|
|:gf|e2 c3 e|g2 f2 e2|d2 G3 B|d3 e dB|c2 D3 F|A2 B2 A2|G2 B,3 E|D4 gf|
e2 c3 e|g2 f2 e2|d2 G3 B|d3 e dB|c2 D3 F|A2 B3 A|G3 G G2|1 G4:|2 G4 z2||
|:(3DED B,2 D2|G,4 z2|(3EFE C2 E2|A4 z2|F2 A3 F|D2 E2 F2|G2 B3 e|d4 z2|
(3DED B,2 D2|G,4 z2|(3EFE C2 E2|A4 z2|F2 A3 F|D2 E2 F2|G3 G G2|G4 z2:|

